!!!COM: Anon.
!!!OTL: Yube-Yonda
!!!OTC: Japanese Popular Music: A Collection of The Popular Music of Japan Rendered in to the Staff notation.
!!!CNT: Nippon, Japanese
!!!TXO: Nippon, Japan
!!!OCY: Nippon, Japan
!!!ODT: <1892///
!!!PSR: S. Miki & Co.
!!!PSP: Osaka, Nippon
!!!PDT: 1892///
!!!PPE: Y Nagai & K. Kobatake
!!!PED: Revised Second Edition
!!!PPG: page 27
!! Allegrelte [sic]
**kern	**silbe
*ICstr	*Lnippon
*ICvox	*
*Ikoto	*
*Ivox	*
*clefG2	*
*k[]	*
*M2/4	*
(8f	.
=1	=1
4g)	.
4g	.
=2	=2
8r	.
(8g	.
8a	.
8g	.
=3	=3
4f)	.
4g	.
=4	=4
8r	.
8a	.
8.cc	.
16a	.
=5	=5
[4g	.
8g]	.
8a	.
=6	=6
4.cc	.
8cc	.
=7	=7
8dd	.
8dd	.
8d	.
8cc	.
=8	=8
4dd	.
8r	.
(8cc	.
=9	=9
4.dd)	.
8dd	.
=10	=10
4ff	.
(4gg	.
=11	=11
4dd)	.
8dd	.
8a	.
=12	=12
8cc	.
8cc	.
8dd	.
8dd	.
=13	=13
8cc	.
8cc	.
8a	.
8g	.
=14	=14
4f	.
8r	.
8d	.
=15	=15
4f	.
4c	.
=16	=16
8r	.
8d	.
8f	.
8d	.
=17	=17
4f	.
4g	.
=18	=18
8r	.
8a	.
8.cc	.
16a	.
=19	=19
4g	.
8a	.
8f	.
=20	=20
4g	.
8a	.
8f	.
=21	=21
8f	.
8f	.
8d	.
8c	.
=22	=22
8f	.
8f	.
8g	.
(8f	.
=23	=23
4g)	.
8.cc	.
16a	.
=24	=24
(4g	.
8a)	.
8f	.
=25	=25
4g	.
8dd	.
8dd	.
=26	=26
8dd	.
8dd	.
8dd	.
8f	.
=27	=27
8g	.
8g	.
8a	.
8g	.
=28	=28
4G	.
4f	.
=29	=29
4g	.
8cc	.
8a	.
=30	=30
4g	.
4c	.
=31	=31
4G 4g	.
4r	.
==	==
*-	*-
!!!ENC: David Huron
!!!RDT: 2000/1/30
!!!EEV: Release 1.0
!!!ELF: 9/28
!!!YER: 2000/2/1
!!!YEM: Copyright David Huron, 2000
!!!YEN: United States of America
